symbols/web/sound_detection_loud_sound/materialsymbolsoutlined/sound_detection_loud_sound_wght700grad200_24px.svg

<svg xmlns="http://www.w3.org/2000/svg" height="24" width="24"><path d="M19.85 19.075h-7.8l-2.225 2.25q-1 1-2.412 1-1.413 0-2.413-1L2.7 19q-1-1-1-2.413 0-1.412 1-2.412L4.925 12V4.125Zm-8.2-3.4L8.325 12.35v1L5.1 16.575 7.425 18.9l3.225-3.225ZM6.775 3.25q3-2.025 6.563-1.663Q16.9 1.95 19.45 4.5q2.575 2.575 2.938 6.137.362 3.563-1.638 6.588l-1.95-1.95q1.225-2.2.9-4.675-.325-2.475-2.1-4.25-1.75-1.775-4.225-2.088Q10.9 3.95 8.7 5.175Zm3.9 3.9q1.45-.525 2.813-.25 1.362.275 2.337 1.275 1 .975 1.275 2.337.275 1.363-.25 2.813L13.525 10q0 .075.013.162.012.088.087.163.075.075.175.1.1.025.175.025Zm-2.3 8.475Z"/></svg>

<svg xmlns="http://www.w3.org/2000/svg" height="24" width="24"><path d="M19.85 19.075H12.05L9.825 21.325Q8.825 22.325 7.413 22.325Q6 22.325 5 21.325L2.7 19Q1.7 18 1.7 16.587Q1.7 15.175 2.7 14.175L4.925 12V4.125ZM11.65 15.675 8.325 12.35V13.35L5.1 16.575Q5.1 16.575 5.1 16.575Q5.1 16.575 5.1 16.575L7.425 18.9Q7.425 18.9 7.425 18.9Q7.425 18.9 7.425 18.9L10.65 15.675ZM6.775 3.25Q9.775 1.225 13.338 1.587Q16.9 1.95 19.45 4.5Q22.025 7.075 22.388 10.637Q22.75 14.2 20.75 17.225L18.8 15.275Q20.025 13.075 19.7 10.6Q19.375 8.125 17.6 6.35Q15.85 4.575 13.375 4.262Q10.9 3.95 8.7 5.175ZM10.675 7.15Q12.125 6.625 13.488 6.9Q14.85 7.175 15.825 8.175Q16.825 9.15 17.1 10.512Q17.375 11.875 16.85 13.325L13.525 10Q13.525 10.075 13.538 10.162Q13.55 10.25 13.625 10.325Q13.7 10.4 13.8 10.425Q13.9 10.45 13.975 10.45Z"/></svg>
